X: 70
T: Eripe me domine
N: Derived from Mar2045-Eripe_me_domine.krn
C: Johannes Martini
%%abc-version 2.0
%%abcx-abcm2ps-target-version 5.9.1 (29 Sep 2008)
%%abc-creator hum2abc beta
%%abcx-conversion-date 2019/02/17 07:19:42
%%abc-edited-by Jesse Rodin
%%abc-edited-by Chris Gage 02-26-2014
%%abcx-initial-encoding-date 2014/10/07/
%%humdrum-veritas 3165422215
%%humdrum-veritas-data 643394402
%%linebreak <none>
%%barnumbers 0
L: 1/4
M: 4/2
Q: 1/2=120
%%staves {1 2}
V: 1 clef=treble
V: 2 clef=treble-8
K: C
[V:1] c4c2c2 | 
[V:2] A4c2c2 | 
[V:1] c2c2c4 | 
[V:2] c2c2c4 | 
[V:1] B2A4G2- | 
[V:2] d4c2B2 | 
[V:1] G2^F2G4 ||  
[V:2] A4G4 ||  
[V:1] A4A2A2 | 
[V:2] c4c2c2 | 
[V:1] A2A2A4 | 
[V:2] c2c2A4 | 
[V:1] A4A2A2 | 
[V:2] c4c2c2 | 
[V:1] A4G2A2 | 
[V:2] c4B2c2 | 
[V:1] B4A4 | 
[V:2] d4A4 | 
[V:1] z4A2A2 | 
[V:2] z4c2c2 | 
[V:1] A4G2A2 | 
[V:2] c4B2c2 | 
[V:1] B2c2B2A2- | 
[V:2] d2c2d4 | 
[V:1] A2G4^F2 | 
[V:2] c2B2A4 | 
[V:1] G8 ||  
[V:2] G8 ||  
[V:1] A4A2A2 | 
[V:2] c4c2c2 | 
[V:1] A4G2F2 | 
[V:2] c4B2A2 | 
[V:1] G4A4 | 
[V:2] B4A4 | 
[V:1] A2B4A2- | 
[V:2] c2d4c2 | 
[V:1] A2^G2A4 | 
[V:2] B4A4 | 
[V:1] z4A4 | 
[V:2] z4c4 | 
[V:1] A2A2A2A2 | 
[V:2] c2c2c2c2 | 
[V:1] A4A2A2 | 
[V:2] c4c2c2 | 
[V:1] B2A4G2- | 
[V:2] d4c2B2 | 
[V:1] G2^F2G4 ||  
[V:2] A4G4 ||  
[V:1] A2A2A2A2 | 
[V:2] c2c2c2c2 | 
[V:1] A2A2A4 | 
[V:2] c2c2c4 | 
[V:1] G2A2B2c2- | 
[V:2] B2c2d2e2- | 
[V:1] c2BAG2A2- | 
[V:2] e2dcB2A2 | 
[V:1] A2^G2A4 | 
[V:2] B4A4 | 
[V:1] z4A4 | 
[V:2] z4c4 | 
[V:1] A2A2A2A2 | 
[V:2] c2c2c2c2 | 
[V:1] A4G2A2 | 
[V:2] c4B2c2 | 
[V:1] B2A4G2- | 
[V:2] d4c2B2 | 
[V:1] G2^F2G4 ||  
[V:2] A4G4 ||  
[V:1] A4A2A2 | 
[V:2] c4c2c2 | 
[V:1] A2A2A4 | 
[V:2] c2c2c4 | 
[V:1] G2F2G4 | 
[V:2] B2A2B4 | 
[V:1] A2B4A2- | 
[V:2] A2d4c2 | 
[V:1] A2^G2A4 | 
[V:2] B4A4 | 
[V:1] z4A2A2 | 
[V:2] z4c2c2 | 
[V:1] A4A2A2 | 
[V:2] c4c2c2 | 
[V:1] A4A4 | 
[V:2] c4c4 | 
[V:1] B2A4G2- | 
[V:2] d4c2B2 | 
[V:1] G2^F2G4 ||  
[V:2] A4G4 ||  
[V:1] A4A2A2 | 
[V:2] A4c2c2 | 
[V:1] G2F2E2F2 | 
[V:2] B2A2G2A2 | 
[V:1] G2A4^G2 | 
[V:2] B2A2B4 | 
[V:1] A4z4 | 
[V:2] A4z4 | 
[V:1] A2A2A4 | 
[V:2] c2c2c4 | 
[V:1] A4A2G2 | 
[V:2] c4A2B2 | 
[V:1] A2c2B2A2- | 
[V:2] c4d2c2 | 
[V:1] A2G4^F2 | 
[V:2] A2B2A4 | 
[V:1] G8 ||  
[V:2] G8 ||  
[V:1] A2A2A2A2 | 
[V:2] c2c2c2c2 | 
[V:1] A4A2B2 | 
[V:2] c4c2d2 | 
[V:1] c2B4A2 | 
[V:2] e2d2c4 | 
[V:1] B4z4 | 
[V:2] B4z4 | 
[V:1] A4A2A2 | 
[V:2] c4c2c2 | 
[V:1] A4A4 | 
[V:2] c4c4 | 
[V:1] G2A2A2B2- | 
[V:2] B2c2A2d2- | 
[V:1] B2A4G2- | 
[V:2] d2c4B2 | 
[V:1] G2^F2G4 ||  
[V:2] A4G4 ||  
[V:1] A4A2A2 | 
[V:2] A4c2c2 | 
[V:1] A2A2A4 | 
[V:2] c2c2A4 | 
[V:1] A2A2G2A2 | 
[V:2] c2A2B2c2 | 
[V:1] B2A4^G2 | 
[V:2] d2A2B4 | 
[V:1] A4z4 | 
[V:2] A4z4 | 
[V:1] A2A2A4 | 
[V:2] c2c2c4 | 
[V:1] A4A2A2 | 
[V:2] c4c2c2 | 
[V:1] G2F2G4 | 
[V:2] B2A2B4 | 
[V:1] A4B2A2- | 
[V:2] c4d4 | 
[V:1] A2G4^F2 | 
[V:2] c2B2A4 | 
[V:1] G8 ||  
[V:2] G8 ||  
[V:1] A2A2A2A2 | 
[V:2] c2c2c2c2 | 
[V:1] A2A2A4 | 
[V:2] c2c2c4 | 
[V:1] A4A2A2 | 
[V:2] c4c2c2 | 
[V:1] A2A2A4 | 
[V:2] c2c2c4 | 
[V:1] A2A2G2A2 | 
[V:2] c2A2B2c2 | 
[V:1] B4A4 | 
[V:2] d4c4 | 
[V:1] z4A4 | 
[V:2] z4c4 | 
[V:1] A2A2A2A2 | 
[V:2] c2c2c2c2 | 
[V:1] A2A2A4 | 
[V:2] c2c2c4 | 
[V:1] z2A2A2A2 | 
[V:2] z2A2c2c2 | 
[V:1] A2A2A4 | 
[V:2] c2c2c4 | 
[V:1] A2A2B2A2- | 
[V:2] c2c2d4 | 
[V:1] A2G4^F2 | 
[V:2] c2B2A4 | 
[V:1] G8 ||  
[V:2] G8 ||  
[V:1] A4G2A2 | 
[V:2] A4B2c2 | 
[V:1] B2c4BA | 
[V:2] d2e4c2 | 
[V:1] G2A4^G2 | 
[V:2] B2A2B4 | 
[V:1] A4z4 | 
[V:2] A4z4 | 
[V:1] A2A2G2F2 | 
[V:2] c2c2B2A2 | 
[V:1] G4A4 | 
[V:2] B4c4 | 
[V:1] A2A2A4 | 
[V:2] c2c2A4 | 
[V:1] A2c2B2A2- | 
[V:2] c4d4 | 
[V:1] A2G4^F2 | 
[V:2] c2B2A4 | 
[V:1] G8 ||  
[V:2] G8 ||  
[V:1] A4A4 | 
[V:2] c4c4 | 
[V:1] A4A2A2 | 
[V:2] c4c2A2 | 
[V:1] G2A2B4 | 
[V:2] B2c2d4 | 
[V:1] A4z4 | 
[V:2] A4z4 | 
[V:1] A2A2A2A2 | 
[V:2] c2c2c2c2 | 
[V:1] A2A2A4 | 
[V:2] c2c2c4 | 
[V:1] G4A4 | 
[V:2] B4A4 | 
[V:1] z4A2A2 | 
[V:2] z4c2c2 | 
[V:1] A2A2A4 | 
[V:2] c2c2c4 | 
[V:1] B2A4G2- | 
[V:2] d4c2B2 | 
[V:1] G2^F2G4 ||  
[V:2] A4G4 ||  
[V:1] A2A2A4 | 
[V:2] c2c2c4 | 
[V:1] A4G2F2 | 
[V:2] c4B2A2 | 
[V:1] E2F2G2A2- | 
[V:2] G2A2B2A2 | 
[V:1] A2^G2A4 | 
[V:2] B4A4 | 
[V:1] z4A4 | 
[V:2] z4c4 | 
[V:1] A2A2A4 | 
[V:2] c2c2c4 | 
[V:1] A4G2A2 | 
[V:2] A4B2c2 | 
[V:1] B2A2c4 | 
[V:2] d2c2c4 | 
[V:1] B2A4G2- | 
[V:2] d4c2B2 | 
[V:1] G2^F2G4 ||  
[V:2] A4G4 ||  
[V:1] A4G4 | 
[V:2] c4B4 | 
[V:1] A4A2A2 | 
[V:2] A4c2c2 | 
[V:1] A2A2A4 | 
[V:2] c2c2c4 | 
[V:1] A2A2A4 | 
[V:2] c2c2c4 | 
[V:1] A2A2A2B2- | 
[V:2] c2c2c2d2- | 
[V:1] B2A4^G2 | 
[V:2] d2c2B4 | 
[V:1] A4z4 | 
[V:2] A4z4 | 
[V:1] A4A2A2 | 
[V:2] c4c2c2 | 
[V:1] B2A4G2- | 
[V:2] d4c2B2 | 
[V:1] G2^F2G4 ||  
[V:2] A4G4 ||  
[V:1] A4A2A2 | 
[V:2] A4c2c2 | 
[V:1] A4A2A2 | 
[V:2] c4c2c2 | 
[V:1] G2F2G2G2 | 
[V:2] B2A2B2B2 | 
[V:1] A4A2B2- | 
[V:2] A4c2d2- | 
[V:1] B2A4^G2 | 
[V:2] d2c2B4 | 
[V:1] A4z4 | 
[V:2] A4z4 | 
[V:1] A4A2A2 | 
[V:2] c4c2c2 | 
[V:1] A4A4 | 
[V:2] c4c4 | 
[V:1] B2A2G2A2- | 
[V:2] d2c2B2c2- | 
[V:1] A2G4^F2 | 
[V:2] c2B2A4 | 
[V:1] G8 ||  
[V:2] G8 ||  
[V:1] A4A2A2 | 
[V:2] c4c2c2 | 
[V:1] A4A4 | 
[V:2] c4c4 | 
[V:1] G2A2B2c2- | 
[V:2] B2c2d2e2- | 
[V:1] c2BAG2A2- | 
[V:2] e2dcB2A2 | 
[V:1] A2^G2A4 | 
[V:2] B4A4 | 
[V:1] z4A4 | 
[V:2] z4c4 | 
[V:1] A2A2A4 | 
[V:2] c2c2c4 | 
[V:1] B2A4G2- | 
[V:2] d4c2B2 | 
[V:1] G2^F2G4 ||  
[V:2] A4G4 ||  
[V:1] A2A2A2A2 | 
[V:2] c2c2c2c2 | 
[V:1] A4G2A2 | 
[V:2] c4B2c2 | 
[V:1] B2c4BA | 
[V:2] d2e4dc | 
[V:1] G2A4^G2 | 
[V:2] B2A2B4 | 
[V:1] A4z4 | 
[V:2] A4z4 | 
[V:1] A4A2A2 | 
[V:2] c4c2c2 | 
[V:1] A4A2B2- | 
[V:2] c4c2d2- | 
[V:1] B2AG^F2G2- | 
[V:2] d2cBA2G2 | 
[V:1] G2^F2G4 |]  
[V:2] A4G4 |]  



